X: 3
T:Addie Harper�s Jig
C:Fergie MacDonald
S:Book, Fergie�s Collection, 1998
Z:https://nigelgatherer.com/
M:6/8
L:1/8
K:D
FE |: DB,A, A,B,D | FEF AFA | BAB dBA | FED EFE |
DB,A, A,B,D | FEF AFA | BAB d2A |1 FDD DFE :|2 FDD D2A ||
B2B Bcd | ABA AFE | F2F FED | DEF AFA | 
B2B Bcd | ABA AFE | DFA d2A | FDD D3 :|

